X:1
T:Title
%%score ( 1 2 ) { 3 | 4 }
L:1/8
M:4/4
K:G
V:1 treble nm="Grand Piano, St. Alban, 65.65 refrain"
V:2 treble 
V:3 treble nm="Choir Pad, Staff-1"
V:4 bass 
V:1
 [GB]2 [GB]2 [FA]2 [FA]2 | [DG]4 D4 | [Dd]2 [Gd]2 [Ge]2 [Ge]2 | [FA]8 | [Ec]2 [Dc]2 [DB]2 [DB]2 | %5
w: By~Franz~Josef~Haydn,~1775 * * *|||||
 [EA]4 E4 | G2 G2 [GA]2 [FA]2 | [DG]8 | [Gd]2 [Gd]2 [Ec]2 [=Fc]2 | [=FB]4 E4 | %10
w: |||||
 [Ec]2 [Ec]2 [Ee]2 [Ee]2 | [DG]4 F4 | [Ec]2 [Ec]2 [DA]2 [DA]2 | [Dd]4 [EB]4 | %14
w: ||||
 [EA]2 [EA]2 [DF]2 [DF]2 | G8 | [DB]2 [DB]2 [DA]2 [DA]2 | [DG]4 D4 | [Dd]2 [Gd]2 [Ge]2 [Ge]2 | %19
w: |||||
 [FA]8 | [Ec]2 [Dc]2 [DB]2 [GB]2 | [EA]4 E4 | [CG]2 [B,G]2 [DA]2 [CA]2 | [B,G]8 |] %24
w: |||||
V:2
 x8 | x8 | x8 | x8 | x8 | x8 | x8 | x8 | x8 | x8 | x8 | x8 | x8 | x8 | x8 | D4 E4 | x8 | x8 | x8 | %19
 x8 | x8 | x8 | x8 | x8 |] %24
V:3
 D2 D2 C2 C2 | B,4[K:bass] B,4 | G,2 B,2 C2 A,2 | A,8 | G,2 A,2 B,2 B,2 | C4 C4 | B,2 ^C2 D2 =C2 | %7
 B,8 | B,2 B,2 C2 D2 | D4 C4 | C2 C2 A,2 C2 | B,4 A,4 | A,2 G,2 F,2 F,2 | G,4 G,4 | C2 C2 A,2 A,2 | %15
 B,4 C4 | B,2 G,2 F,2 C2 | C4 B,4 | B,2 B,2 C2 A,2 | A,8 | G,2 A,2 B,2 D2 | C4 C4 | %22
 G,2 G,2 G,2 F,2 | G,8 |] %24
V:4
 G,2 G,2 D,2 D,2 | G,4 G,4 | B,,2 G,,2 C,2 C,2 | D,8 | E,2 F,2 G,2 G,2 | A,4 A,4 | %6
 E,2 E,2 D,2 D,2 | G,8 | z2 G,2 A,2 D,2 | G,4 z4 | A,2 A,2 C,2 C,2 | D,8 | A,,2 A,,2 D,2 C,2 | %13
 B,,4 E,4 | C,2 C,2 D,2 D,2 | G,8 | G,,2 B,,2 D,2 F,2 | G,4 G,4 | z2 G,2 z2 C,2 | D,8 | %20
 E,2 F,2 G,2 G,2 | A,4 A,4 | E,2 E,2 D,2 D,2 | G,,8 |] %24

